X:1
T:Asher, 86.86.88
T:Asa Hull, 1888
T:Asher, 86.86.88
T:Public Domain
C:Asa Hull, 1888
Z:Public Domain
%%score ( 1 2 ) ( 3 4 )
L:1/8
M:3/4
K:Eb
V:1 treble 
V:2 treble 
V:3 bass 
V:4 bass 
V:1
 E2 | [EG]>[EG] [EG][EG] [EG][EG] | [GB]4 [EG]2 | [DF]>[DF] [DF]2 [FA]2 | [EG]4 E2 | %5
 [Ec]>[Ac] [Ac][Ac] [Ac][Ac] | ([GB]2 [EG]2) [B,E]2 | [B,D][CE] [DF]2 [DG]2 | E4 B2 | G>G G2 G2 | %10
 [Ge]2 [Ge]2 [Gd]3 [Gd] | [Ac]>[Ac] [Ac]2 [Ac]2 | [GB]2 [FA]2 [EG]2 |] %13
V:2
 E2 | x6 | x6 | x6 | x4 E2 | x6 | x6 | x6 | E4 B2 | G>G G2 G2 | x8 | x6 | x6 |] %13
V:3
 [E,G,]2 | [E,B,]>[E,B,] [E,B,][E,B,] [E,B,][E,B,] | [E,E]4 [E,B,]2 | %3
 [B,,B,]>[B,,B,] [B,,B,]2 [B,,B,]2 | [E,B,]4 [E,G,]2 | [A,,A,]>[A,,E] [A,,E][A,,E] [A,,E][A,,E] | %6
 (E2 B,2) [E,G,]2 | [B,,F,][B,,F,] [B,,B,]2 [B,,B,]2 | [E,G,]4 B,2 | G,>G, G,2 G,2 | %10
 [C,C]2 [C,C]2 [G,,=B,]3 [G,,B,] | [A,,C]>[A,,E] [A,,E]2 [A,,E]2 | [B,,E]2 [B,,B,]2 [E,B,]2 |] %13
V:4
 x2 | x6 | x6 | x6 | x6 | x6 | E,4 x2 | x6 | x4 B,2 | G,>G, G,2 G,2 | x8 | x6 | x6 |] %13

